!!!id: bhatk3187s
!!!vol: 3
!!!page: 187
!!!sthayee: Saba sakhiyaan chalo
!!!raag: bihag
!!!taal: teentaal
!!!tempo: madhyalaya
**kern
!!data: // >SP  P  >MG  M/  G  >RS  -  N,/  P,  P,  N,  -/  S  S  >MG  M/
==1
cq
4g
4g
fq
4e
4f
=
4e
dq
2c
4B
=
4G
4G
2B
=
4c
4c
fq
4e
4f
!!data: // >MG  M  P  N/  S'  N  >Dm  P/  P  P  >PG  -  >GM  GR  N,  S/
==2
fq
4e
4f
4g
4b
=
4cc
4b
aq
4f#
4g
=
4g
4g
gq
2e
eq
4f
8e
8d
4B
4c
==
*-
